X:046
T: Carolan's Devotion
N: O'Farrell's Pocket Companion v.1 (Sky ed. p.37-38)
N: "Irish"
M: 3/4
L: 1/8
R: waltz
Q: 150
K: Am
ab|c'2 b2 ab|g2 e2 a/g/e/d/|c2 B2 AG|G4 AB|cBcdec|
dcde ae/d/| c2 AcBG| A4 :|
A2|E2 A2 A2|ABAGFG|E2 c2 c2|cedcBA|G2 g2 g2|gagfed|
e2 a2 ab|a4 b2|c'2 b2 ab|c'2 e2 ed|cdefga|g2 G2 G2|
cBABcd|e2 A2 BA|G2 E2 ED|E4 ef|gfgbag|agac'ba|gedcBA|
G4 AB|cBcded/c/|dcdea{g}e/d/|c2 A{B}cBG| A4 ||
